X: 9278
T: Dance Of Ganesh, The
R: jig
M: 6/8
K: Amixolydian
e2d cAA|=FAA EAG|=FBd cAc|ABB GBd|
c/d/ed cAA|=FAA EAG|=FED EAA|B/c/dB cAc:|
|:d2e =fed|cde dBB|cBA Gdd|=Fdd dcd|
eEE GBd|cAA EAG|=FED EAA|B/c/dB cAc:|

